img/svg/soundcloud-logo.svg

<svg xmlns="http://www.w3.org/2000/svg" width="90" height="90" viewBox="0 0 90 90"><path d="M0 54.023c0 3.043 1.385 5.764 3.568 7.598V46.43C1.385 48.259 0 50.982 0 54.023m7.342-9.591v19.183c.891.246 1.832.385 2.801.385h.974V44.094a10.365 10.365 0 0 0-3.775.338m8.336 1.245a9.351 9.351 0 0 0-.789-.457V64h3.773V38.881a15.49 15.49 0 0 0-2.984 6.796m6.759-10.328V64h3.774V33.491a16.044 16.044 0 0 0-3.774 1.858m7.547-2.639V64h3.774V32.825a16.18 16.18 0 0 0-3.774-.115m9.628 2.206a16.068 16.068 0 0 0-3.966-1.69V64h5.66V32.646a19.432 19.432 0 0 0-1.694 2.27m3.583-4.162V64h35.852v-.044C86.596 63.473 90 58.79 90 53.075c0-6.035-4.562-10.925-10.703-10.925-1.576 0-2.874.325-4.245.913C74.07 33.481 65.941 26 55.932 26c-4.896 0-9.346 1.793-12.737 4.754"/></svg>

<?xml version="1.0" encoding="iso-8859-1"?>
<!-- Generator: Adobe Illustrator 16.0.0, SVG Export Plug-In . SVG Version: 6.00 Build 0)  -->
<!DOCTYPE svg PUBLIC "-//W3C//DTD SVG 1.1//EN" "http://www.w3.org/Graphics/SVG/1.1/DTD/svg11.dtd">
<svg version="1.1" id="Capa_1" xmlns="http://www.w3.org/2000/svg" xmlns:xlink="http://www.w3.org/1999/xlink" x="0px" y="0px"
	 width="90px" height="90px" viewBox="0 0 90 90" style="enable-background:new 0 0 90 90;" xml:space="preserve">
<g>
	<path id="SoundCloud" d="M0,54.023c0,3.043,1.385,5.764,3.568,7.598V46.43C1.385,48.259,0,50.982,0,54.023 M7.342,44.432v19.183
		C8.233,63.861,9.174,64,10.143,64h0.974V44.094c-0.325-0.027-0.65-0.045-0.98-0.045C9.165,44.049,8.23,44.184,7.342,44.432
		 M15.678,45.677c-0.258-0.165-0.515-0.317-0.789-0.457V64h3.773V38.881C17.16,40.841,16.113,43.155,15.678,45.677 M22.437,35.349
		V64h3.774V33.491C24.862,33.945,23.596,34.577,22.437,35.349 M29.984,32.71V64h3.774V32.825c-0.773-0.115-1.569-0.175-2.38-0.175
		C30.906,32.65,30.441,32.673,29.984,32.71 M39.612,34.916c-1.232-0.73-2.558-1.306-3.966-1.69V64h5.66V32.646
		C40.688,33.359,40.12,34.12,39.612,34.916 M43.195,30.754V64h35.852v-0.044C86.596,63.473,90,58.79,90,53.075
		c0-6.035-4.562-10.925-10.703-10.925c-1.576,0-2.874,0.325-4.245,0.913C74.07,33.481,65.941,26,55.932,26
		C51.036,26,46.586,27.793,43.195,30.754"/>
</g>
<g>
</g>
<g>
</g>
<g>
</g>
<g>
</g>
<g>
</g>
<g>
</g>
<g>
</g>
<g>
</g>
<g>
</g>
<g>
</g>
<g>
</g>
<g>
</g>
<g>
</g>
<g>
</g>
<g>
</g>
</svg>
